icons/ppe-mask-two-two-color.svg

<?xml version="1.0" encoding="UTF-8"?><svg id="uuid-15b166f3-0e02-4cd1-87e3-628f56bd77a9" xmlns="http://www.w3.org/2000/svg" viewBox="0 0 50 50"><path d="M32.18,17.55c-.21-.01-.4-.16-.45-.36-.28-1.01-2.36-2.06-5.35-2.06s-5.09,1.07-5.36,2.07c-.06,.21-.24,.36-.45,.37-3.53,.2-7.05,.58-10.47,1.12v16.58c5.36,1.4,10.88,2.11,16.42,2.11h.05c5.52,0,11.02-.71,16.36-2.11V18.68c-3.5-.55-7.11-.93-10.74-1.13Z" fill="#ffcd00"/><path d="M49.72,23.56c-.49-1.46-1.57-2.62-3.05-3.27-1.33-.58-2.82-.66-4.26-.28v-3.25c0-.25-.18-.45-.42-.49-3.57-.58-7.25-.98-10.94-1.19-.71-1.43-3.21-2.44-6.18-2.44s-5.49,1.01-6.19,2.46c-3.6,.22-7.19,.61-10.67,1.18-.24,.04-.42,.25-.42,.49v2.91c-1.44-.38-2.94-.3-4.26,.28-1.47,.65-2.56,1.81-3.05,3.27-1.01,3,.83,6.33,4.09,7.43,.71,.24,1.43,.36,2.15,.36,.36,0,.71-.04,1.07-.1v3.24c0,.23,.15,.42,.37,.48,5.56,1.49,11.29,2.24,17.04,2.24h.05c5.73,0,11.45-.76,16.99-2.24,.22-.06,.37-.26,.37-.48v-2.9c.35,.06,.71,.1,1.07,.1,.72,0,1.45-.12,2.15-.36,1.57-.53,2.87-1.59,3.64-2.98,.78-1.41,.94-2.99,.45-4.45Zm-24.67,12.32h-.05c-5.54,0-11.06-.71-16.42-2.11V17.18c3.42-.54,6.94-.92,10.47-1.12,.21-.01,.4-.16,.45-.37,.27-.99,2.39-2.07,5.36-2.07s5.07,1.05,5.35,2.06c.06,.21,.24,.35,.45,.36,3.62,.2,7.23,.58,10.74,1.13v16.58c-5.34,1.39-10.84,2.1-16.36,2.11ZM4.68,29.7c-2.74-.92-4.29-3.69-3.46-6.17,.4-1.19,1.29-2.14,2.5-2.67,.67-.3,1.4-.45,2.15-.45,.57,0,1.15,.1,1.71,.27v9.2c-.94,.19-1.94,.13-2.9-.19Zm43.72-2.18c-.65,1.17-1.75,2.07-3.08,2.52-.96,.32-1.96,.38-2.9,.19v-9.2c.57-.18,1.14-.27,1.71-.27,.74,0,1.47,.15,2.15,.45,1.21,.53,2.1,1.48,2.5,2.68,.4,1.19,.27,2.49-.38,3.65Z"/><path d="M34.22,20.3H15.77c-.28,0-.5,.22-.5,.5s.22,.5,.5,.5h18.45c.28,0,.5-.22,.5-.5s-.22-.5-.5-.5Z"/><path d="M34.22,24.49H15.77c-.28,0-.5,.22-.5,.5s.22,.5,.5,.5h18.45c.28,0,.5-.22,.5-.5s-.22-.5-.5-.5Z"/><path d="M34.22,28.69H15.77c-.28,0-.5,.22-.5,.5s.22,.5,.5,.5h18.45c.28,0,.5-.22,.5-.5s-.22-.5-.5-.5Z"/></svg>

<svg id="f4abe057-90c5-454c-a965-1058226f80f5" data-name="ICONS" xmlns="http://www.w3.org/2000/svg" viewBox="0 0 50 50"><path d="M32.18,17.55a.5.5,0,0,1-.46-.36c-.28-1-2.36-2.06-5.35-2.06S21.28,16.2,21,17.2a.5.5,0,0,1-.46.36c-3.53.21-7,.58-10.47,1.12V35.26A65,65,0,0,0,26.5,37.37h.05a64.52,64.52,0,0,0,16.36-2.11V18.68A107.66,107.66,0,0,0,32.18,17.55Z" fill="#fdd600"/><path d="M49.72,23.56a5.45,5.45,0,0,0-3-3.28A6.47,6.47,0,0,0,42.41,20V16.76a.5.5,0,0,0-.42-.5,105.47,105.47,0,0,0-10.94-1.19c-.71-1.43-3.21-2.44-6.18-2.44s-5.49,1-6.2,2.45c-3.6.22-7.19.62-10.67,1.18a.51.51,0,0,0-.42.5v2.91A6.48,6.48,0,0,0,3.32,20a5.49,5.49,0,0,0-3,3.27,6,6,0,0,0,4.09,7.43A6.75,6.75,0,0,0,6.52,31a6.24,6.24,0,0,0,1.06-.1v3.24a.5.5,0,0,0,.38.48,65.78,65.78,0,0,0,17,2.24h.05a65.83,65.83,0,0,0,17-2.24.49.49,0,0,0,.37-.48v-2.9a6.35,6.35,0,0,0,1.07.09A6.63,6.63,0,0,0,45.63,31a6.48,6.48,0,0,0,3.64-3A5.42,5.42,0,0,0,49.72,23.56ZM25.05,35.87H25A65,65,0,0,1,8.58,33.76V17.18c3.42-.54,6.94-.91,10.47-1.12a.5.5,0,0,0,.46-.36c.27-1,2.39-2.07,5.36-2.07s5.07,1,5.35,2.06a.5.5,0,0,0,.46.36,107.66,107.66,0,0,1,10.73,1.13V33.76A64.52,64.52,0,0,1,25.05,35.87ZM4.68,29.7a5,5,0,0,1-3.46-6.16,4.5,4.5,0,0,1,2.51-2.68,5.39,5.39,0,0,1,2.14-.44,5.6,5.6,0,0,1,1.71.27v9.2A5.54,5.54,0,0,1,4.68,29.7ZM48.4,27.52A5.48,5.48,0,0,1,45.31,30a5.63,5.63,0,0,1-2.9.19V21a5.73,5.73,0,0,1,1.72-.28,5.23,5.23,0,0,1,2.14.45,4.45,4.45,0,0,1,2.51,2.68A4.5,4.5,0,0,1,48.4,27.52Z" fill="#231f20"/><path d="M34.22,20.3H15.77a.5.5,0,0,0-.5.5.51.51,0,0,0,.5.5H34.22a.5.5,0,0,0,.5-.5A.5.5,0,0,0,34.22,20.3Z" fill="#231f20"/><path d="M34.22,24.49H15.77a.51.51,0,0,0-.5.5.5.5,0,0,0,.5.5H34.22a.5.5,0,0,0,.5-.5A.5.5,0,0,0,34.22,24.49Z" fill="#231f20"/><path d="M34.22,28.69H15.77a.51.51,0,0,0-.5.5.5.5,0,0,0,.5.5H34.22a.5.5,0,0,0,.5-.5A.5.5,0,0,0,34.22,28.69Z" fill="#231f20"/></svg>
